X: 15
M:6/8
L:1/8
K:G
def gfg|d2 B Bcd|edc BcA|G3 G2:|
|:B|c2 A ABA|B2 G GAG|c2 A ABA|B2 G GBd|
def gfg|d2 B Bcd|edc BcA|G3 G2:||

